X:516
T: Bauer keen Edelmann! (221b), S. 477
N: T0404
O: Luxemburg
S: Singendes Volk, Esch-Alzette, 1937 posth.]
N: Diekirch, fff Elise Laschette, 28.1.1929
R: Berufslied]
M: 3/8
L: 1/16
K: F
F2F2F2 | A2A2A2 | F6
A2A2A2 | ccccA2
F2F2F2 | A2G2G2 | F6
c2B2B2 | A6
F4F2 | F2F2d2 | d2c2c2 | c6
AAc2c2 | c2B2B2 | A6
FFF2F2 | FFz4
FFF2F2 | FFz4
F2F2F2 | ccz4

